X:72
T:Gary Richard's Reel
R:reel
C:Bruce Osborne - Oct. 2004
Z:abc by bosborne@kos.net
M:2/4
L:1/8
K:Bb
F/A/|BB/A/ B/F/D/F/|B/d/c/A/ BA/B/|c/F/F/F/ d/F/F/F/|e/F/d/F/ cF/A/|\
BB/A/ B/F/D/F/|B/d/c/A/ BA/B/|c/F/F/F/ e/c/A/c/|B/A/B/c/ B:|
|:f|b/B/B/B/ a/B/B/B/|g/B/B/B/ f/B/A/B/|g/B/B/B/ f/B/A/B/|d/c/B/d/ cf|\
b/B/B/B/ a/B/B/B/|g/B/B/B/ f/B/A/B/|D/F/B/d/ c/B/A/c/|B/A/B/c/ B:|
